X:1
T:Serafina
M:2/4
L:1/8
K:G
 D| GG GD| GG GD| GG AA| B G3| G2 A2| B G3| G2 A2| B G2| B| dd dB|\
 cc c A/2A/2| BB BG| A d3| G2 A2| B d2 c| B2 A2| A G2||
